X: 151
T: No_5_My_Pan_of_Food.krn
N: Derived from No_5_My_Pan_of_Food.krn
%%abc-version 2.0
%%abcx-abcm2ps-target-version 5.9.1 (29 Sep 2008)
%%abc-creator hum2abc beta
%%abcx-conversion-date 2019/03/15 08:29:13
%%humdrum-veritas 2915109394
%%humdrum-veritas-data 2966004295
%%linebreak <none>
%%barnumbers 0
L: 1/8
M: 3/4
%%staves {1 2}
V: 1 clef=bass
V: 2 clef=bass
K: G
[V:1] [K:clef=bass][M:3/4]D2D2D2 ||  
[V:2] [K:clef=bass][M:3/4]G,,G,, G,,G,, G,,G,, ||  
[V:1] [M:2/4]D2D2 | 
[V:2] [M:2/4]z4 | 
[V:1] (D2(3D)DD | 
[V:2] z4 | 
[V:1] D3/D/D2 | 
[V:2] z4 | 
[V:1] B,2D2 | 
[V:2] z4 | 
[V:1] B,2G,G, | 
[V:2] z4 | 
[V:1] G,2B,B, ]|:  
[V:2] z4 ]|:  
[V:1] [M:3/4]B,2G,2G,2 | 
[V:2] [M:3/4]z6 | 
[V:1] G,6 | 
[V:2] z6 | 
[V:1] G,6 | 
[V:2] z6 | 
[V:1] E,G,G,2G,G, | 
[V:2] z6 | 
[V:1] G,4B,B, | 
[V:2] z6 | 
[V:1] B,2D2D2 | 
[V:2] z6 | 
[V:1] B,6 | 
[V:2] z6 | 
[V:1] B,6 | 
[V:2] z6 | 
[V:1] B,B,A,2A,G, | 
[V:2] z6 | 
[V:1] G,4B,B, | 
[V:2] z6 | 
[V:1] B,2B,2G,2 | 
[V:2] z6 | 
[V:1] G,6 | 
[V:2] z6 | 
[V:1] G,6 | 
[V:2] z6 | 
[V:1] E,E,E,2D,D, | 
[V:2] z6 | 
[V:1] D,4E,E, | 
[V:2] z6 | 
[V:1] E,2E,2D,2 | 
[V:2] z6 | 
[V:1] D,6 | 
[V:2] z6 | 
[V:1] D,6 | 
[V:2] z6 | 
[V:1] B,,B,,B,,2G,,G,, | 
[V:2] z6 | 
[V:1] G,,4B,,B,, | 
[V:2] z6 | 
[V:1] B,,2G,,2G,,2 | 
[V:2] z6 | 
[V:1] G,,6 | 
[V:2] z6 | 
[V:1] G,,6 | 
[V:2] z6 | 
[V:1] D3/ D3/ D3/ D3/ | 
[V:2] z6 | 
[V:1] D6 | 
[V:2] z6 | 
[V:1] D6 | 
[V:2] z6 | 
[V:1] B,DB,2G,G, | 
[V:2] z6 | 
[V:1] G,4B,B, :|]  
[V:2] z6 :|]  



